dist/svgs/crypto-icons/icons/xem.svg

<?xml version="1.0" encoding="UTF-8" standalone="yes"?>
<svg xmlns="http://www.w3.org/2000/svg" xmlns:xlink="http://www.w3.org/1999/xlink" width="512px" height="512px" viewBox="0 0 384 384" version="1.1">
  <g id="surface1">
    <path style=" stroke:none;fill-rule:nonzero;fill:rgb(0%,0%,0%);fill-opacity:1;" d="M 132.960938 179.605469 C 133.800781 179.148438 134.550781 178.722656 135.289062 178.265625 C 161.523438 162.519531 177.207031 134.996094 177.339844 104.566406 L 177.335938 104.335938 C 177.335938 62.441406 199.214844 25.058594 234.34375 4.710938 C 220.203125 3.175781 205.992188 2.402344 191.769531 2.394531 C 126.394531 2.394531 61.351562 18.636719 3.660156 49.355469 C 0.945312 50.800781 0.757812 51.117188 0.550781 51.484375 C 0.0976562 52.265625 -0.0351562 52.554688 0.0078125 53.972656 C 0.703125 76.867188 3.363281 99.65625 7.957031 122.097656 C 9.003906 127.152344 10.144531 132.183594 11.386719 137.191406 C 24.664062 169.058594 56.640625 190.445312 91.078125 190.445312 C 105.742188 190.445312 120.226562 186.695312 132.960938 179.605469 Z M 236.050781 204.589844 C 235.382812 204.179688 234.707031 203.78125 234.023438 203.398438 L 233.226562 202.941406 C 220.820312 196.078125 206.394531 192.363281 191.804688 192.363281 C 177.136719 192.363281 162.707031 196.078125 150.074219 203.113281 C 149.207031 203.652344 148.058594 204.320312 146.910156 204.941406 C 129.96875 214.363281 110.644531 219.359375 91.082031 219.359375 C 71.308594 219.359375 51.703125 214.085938 34.410156 204.285156 C 66.46875 276.082031 119.613281 337.949219 185.523438 379.78125 C 187.101562 380.789062 188.191406 381.226562 192.039062 381.226562 C 195.523438 381.226562 196.371094 380.875 198.078125 379.792969 C 216.011719 368.398438 233.011719 355.59375 248.910156 341.496094 C 252.792969 338.035156 256.609375 334.503906 260.355469 330.894531 C 271.765625 315.886719 278.042969 297.34375 278.042969 278.625 C 278.042969 248.460938 261.953125 220.089844 236.050781 204.589844 Z M 383.058594 51.476562 C 382.855469 51.125 382.667969 50.800781 379.949219 49.351562 C 360.710938 39.109375 340.667969 30.453125 320.015625 23.480469 C 315.269531 21.882812 310.496094 20.371094 305.691406 18.953125 C 301.324219 18.28125 296.917969 17.941406 292.5 17.9375 C 245.300781 17.9375 206.832031 56.054688 206.261719 103.121094 L 206.261719 104.226562 C 206.277344 134.664062 221.835938 162.253906 247.902344 178.027344 L 248.28125 178.261719 C 249.078125 178.691406 250.082031 179.265625 251.019531 179.832031 C 285.179688 200.285156 306.542969 237.628906 306.945312 277.46875 C 354.097656 212.5 381.183594 133.796875 383.59375 53.941406 C 383.632812 52.535156 383.527344 52.285156 383.058594 51.476562 Z M 383.058594 51.476562 "/>
  </g>
</svg>

<svg xmlns="http://www.w3.org/2000/svg" viewBox="0 0 384 384"><path d="M132.96 179.605a47.46 47.46 0 002.33-1.34c26.233-15.745 41.917-43.269 42.05-73.699l-.004-.23c0-41.895 21.879-79.277 57.008-99.625a396.468 396.468 0 00-42.574-2.316c-65.375 0-130.418 16.242-188.11 46.96C.945 50.801.758 51.117.55 51.485c-.452.78-.585 1.07-.542 2.488a400.276 400.276 0 007.949 68.125 397.665 397.665 0 003.43 15.093c13.277 31.868 45.254 53.254 79.691 53.254 14.664 0 29.149-3.75 41.883-10.84zm103.09 24.985a58.537 58.537 0 00-2.027-1.192l-.796-.457c-12.407-6.863-26.832-10.578-41.422-10.578-14.668 0-29.098 3.715-41.73 10.75a63.679 63.679 0 01-3.165 1.828c-16.941 9.422-36.265 14.418-55.828 14.418-19.773 0-39.379-5.273-56.672-15.074 32.059 71.797 85.203 133.664 151.113 175.496 1.579 1.008 2.668 1.446 6.516 1.446 3.484 0 4.332-.352 6.04-1.434a399.672 399.672 0 0050.831-38.297c3.883-3.46 7.7-6.992 11.445-10.601 11.41-15.008 17.688-33.551 17.688-52.27 0-30.164-16.09-58.535-41.992-74.035zM383.06 51.477c-.204-.352-.391-.676-3.11-2.125a399.422 399.422 0 00-59.933-25.872 398.077 398.077 0 00-14.325-4.527 87.226 87.226 0 00-13.191-1.015c-47.2 0-85.668 38.117-86.238 85.183v1.106c.015 30.437 15.574 58.027 41.64 73.8l.38.235a70 70 0 012.738 1.57c34.16 20.453 55.523 57.797 55.925 97.637 47.153-64.969 74.239-143.672 76.649-223.528.039-1.406-.067-1.656-.535-2.464zm0 0"/></svg>
